X:1
T:BWV 1055M
T:Johann Sebastian Bach
%%score { ( 1 4 ) | ( 2 3 ) } { 5 | 6 } { 7 | 8 }
L:1/8
M:4/4
K:Ab
V:1 treble nm="Harp"
V:4 treble 
V:2 bass 
V:3 bass 
V:5 treble nm="Harp"
V:6 bass 
V:7 treble nm="Harp"
V:8 bass 
V:1
 z/ e/a/g/ a/e/c/A/ e/c/A/E/ c/A/E/C/ | z/ d/b/a/ b/g/d/B/ g/d/B/G/ d/B/G/E/ | %2
 cA f/4e/4f3/2- fg/a/ b/a/g/a/ | bB e/4d/4e3/2- ef/g/ a/g/f/g/ | aA/G/ Aa/g/ aA/G/ Aa/g/ | %5
 aa/4g/4f/ ge c =d2 e/f/ | B=d- d/e/d/e/ A d2 e/f/ | GA/B/ cf Bb a/g/f/g/ | %8
 e/B/e/=d/ e/B/G/E/ B/G/E/B,/ G/E/B,/G,/ | z/ B/g/f/ g/e/B/G/ e/B/G/E/ B/G/E/B,/ | %10
 z/ e/a/g/ a/e/c/A/ e/c/A/E/ c/A/E/C/ | z/ e/_g/f/ g/e/c/A/ e/c/A/E/ c/A/E/C/ | %12
 f B2 c/4B/4d/ e A2 B/4A/4c/ | d/c/d/e/ d/f/e/d/ c/B/c/d/ c/e/d/c/ | %14
 B/A/B/c/ B/c/A/B/ c/B/c/d/ c/d/B/c/ | d/c/d/e/ d/c/B/A/ eA EA/4G/4F/4G/4 | %16
 A,2- A,/C/B,/C/ A,2- A,/C/B,/C/ | A,/B,/C/D/ E/A/G/F/ E2- E/G/F/G/ | %18
 E2- E/G/F/G/ E/F/G/A/ B/d/c/B/ | c2- c/e/d/e/ c2- c/e/d/e/ | %20
 c/d/e/f/ _g/f/e/g/ f/e/d/f/ e/d/c/B/ | e/d/c/e/ d/c/B/A/ d/c/B/d/ c/B/A/c/ | %22
 B/G/e/=d/ e/B/G/E/ B/G/E/B,/ G/E/B,/G,/ | z/ e/b/a/ b/g/e/B/ g/e/B/G/ e/B/G/E/ | %24
 A/4G/4A3/2- A/c/B/c/ A2- A/B/c/d/ | e/a/g/f/ ee/4d/4c/4d/4 c/B/c/d/ c/e/d/c/ | %26
 B/A/B/c/ B/d/c/B/ A/G/A/B/ A/c/B/A/ | G/F/G/4F/4A/ G/E/=D/E/ A/G/A/B/ A/E/D/E/ | %28
 B/A/B/c/ B/E/=D/E/ c/_d/c/B/ A/G/F/E/ | =D/C/B,/C/ D/E/F/G/ A/G/A/B/ A/c/B/A/ | %30
 G/F/E/F/ G/A/B/c/ d/c/d/e/ d/f/e/d/ | c/e/=d/f/ e2 e/d/e/4d/4c/ d/[de]/[de]/e/ | %32
 e/B/e/=d/ e/B/G/E/ B/G/E/B,/ G/E/B,/G,/ | z/ d/b/a/ b/g/d/B/ g/d/B/G/ d/B/G/D/ | %34
 c/4B/4c/A f/4e/4f3/2- fg/a/ b/a/g/a/ | bB e/4d/4e3/2- ef/g/ a/g/f/g/ | aA/G/ Aa/g/ aA/G/ Aa/g/ | %37
 aa/4g/4f/ ge c =d2 e/f/ | B=d- d/e/d/e/ A d2 e/f/ | GA/B/ cf Bb a/g/f/g/ | %40
 e2- e/g/f/g/ e2- e/g/f/g/ | e/f/g/a/ b/d'/c'/b/ c'/e/a/g/ a/g/4f/4e/4d/4c/4B/4 | %42
 A/4G/4A3/2- A/c/B/c/ A2- A/c/B/c/ | A/B/c/d/ e/_g/f/e/ fd z/ f/e/f/ | %44
 B/c/c/4B/4=A/ B/_G/F/G/ e/d/e- e/d/d/4d/4B/ | =A/B/A/G/ A/F/=E/F/ d/c/d z/ B/A/B/ | %46
 eE/D/ Ee/d/ eE/D/ Ee/d/ | e=A c/4B/4A/4B/4c Ff e/d/c/d/ | B/f/b/=a/ b/f/d/B/ f/d/B/F/ d/B/F/D/ | %49
 z/ f/b/=a/ b/f/=d/B/ f/d/B/F/ d/B/F/=D/ | d/4c/4d3/2- d/e/d/c/ d/4c/4d3/2- d/f/e/d/ | %51
 c/A/G/A/ c/d/c/B/ c/F/=E/F/ d/c/B/A/ | B/G/F/G/ B/c/B/A/ B/=E/=D/E/ c/B/A/G/ | A =E2 F B E2 F | %54
 c/_F/=F- F/=A/B/c/ d/B/A/B/ _g/f/=e/f/ | =e/c/=d/e/ f/g/a/g/ b/a/g/f/ aa/4g/4a/4g/4 | %56
 f/c/f/=e/ f/c/A/F/ c/A/F/C/ A/F/C/A,/ | z/ c/f/=e/ f/c/=A/F/ c/A/F/C/ A/F/C/=A,/ | %58
 B,<a- a/b/a/g/ a2- a/f/=d/B/ | g/a/g/f/ g/e/=d/e/ g/c/=B/c/ a/g/f/e/ | %60
 f/g/f/e/ f/=d/c/d/ f/=B/d/f/ g/f/e/d/ | ec=Bc fcBc | gc=Bc a/g/f/e/ =d/e/f/c/ | %63
 =B/f/c/f/ =d/f/e/d/ gc Gc/4=B/4A/4B/4 | [cc]/G/c/=B/ c/G/E/C/ G/E/C/G,/ E/C/G,/E,/ | %65
 z/ =d/f/e/ f/d/=B/G/ d/B/G/=D/ B/G/D/=B,/ | z [ce]/[=df]/ [eg][ce] [=Ac][ce][FA][Ac] | %67
 z [Bd]/[ce]/ [df][Bd] [GB][Bd][EG][GB] | c/d/c/B/ c/A/G/A/ d/e/d/c/ d/A/G/A/ | %69
 e/f/e/d/ e/A/G/A/ f/_g/f/e/ d/c/B/A/ | G/A/G/F/ G/E/=D/E/ A/B/A/G/ A/E/D/E/ | %71
 B/c/B/A/ B/E/=D/E/ c/d/c/B/ A/G/F/E/ | D2- D/E/D/C/ D/4C/4D3/2- D/E/D/C/ | %73
 D/G/B/A/ G/F/E/D/ C2- C/D/C/B,/ | C2- C/D/C/B,/ C/F/A/G/ F/E/=D/C/ | %75
 B,2- B,/C/B,/A,/ B,2- B,/C/B,/A,/ | B,/C/=D/E/ F/A/G/F/ G/B/E/F/ G/A/B/c/ | %77
 d/f/B/c/ d/e/f/g/ ab ea/4g/4f/4g/4 | a/e/a/g/ a/e/c/A/ e/c/A/E/ c/A/E/C/ | %79
 z/ d/b/a/ b/g/d/B/ g/d/B/G/ d/B/G/E/ | c/4B/4A3/2- A/c/B/c/ B/E/A- A/c/B/c/ | %81
 A/B/c/d/ e/_g/f/e/f/8e/8d3/4A D z | G/4F/4G3/2- G/B/A/B/ G/4F/4G3/2- G/B/A/B/ | %83
 G/A/B/c/ d/f/e/d/ e/4d/4c3/2 z e | A/B/A/G/ A/F/=E/F/ e<d- d/c/B/A/ | %85
 G/A/G/F/ G/E/=D/E/ c/4B/4c3/2 z/ A/G/A/ | dD/C/ Dd/c/ dD/C/ Dd/c/ | %87
 d/g/a/b/ a/g/f/e/ d/c/B/A/ BA/4G/4F/4G/4 | A/e/a/g/ a/e/c/A/ e/c/A/E/ c/A/E/C/ | %89
 z/ d/b/a/ b/g/d/B/ g/d/B/G/ d/B/G/E/ | cA f/4e/4f3/2- fg/a/ b/a/g/a/ | %91
 bB e/4d/4e3/2- ef/g/ a/g/f/g/ | aA/G/ Aa/g/ aA/G/ Aa/g/ | aa/4g/4f/ ge c =d2 e/f/ | %94
 B=d- d/e/d/e/ A d2 e/f/ | GA/B/ cf Bb a/g/f/g/ | e/B/e/=d/ e/B/G/E/ B/G/E/B,/ G/E/B,/G,/ | %97
 z/ B/g/f/ g/e/B/G/ e/B/G/E/ B/G/E/B,/ | z/ e/a/g/ a/e/c/A/ e/c/A/E/ c/A/E/C/ | %99
 z/ e/_g/f/ g/e/c/A/ e/c/A/E/ c/A/E/C/ | f B2 c/4B/4d/ e A2 B/4A/4c/ | %101
 d/c/d/e/ d/f/e/d/ c/B/c/d/ c/e/d/c/ | B/A/B/c/ B/c/A/B/ c/B/c/d/ c/d/B/c/ | %103
 d/c/d/e/ d/c/B/A/ eA EA/4G/4F/4G/4 | [EA]2 z2 z4 |[M:12/8][Q:1/4=72]"^Adagio" z12 | z12 | %107
 c/A/G/F/c c/4B/4c3/2-c- c/G/F/=E/c d/4c/4B/4c/4- c2- | %108
 c/B/A/G/A/F/ A/c/f/g/a- a/g/a/b/a/g/ f/e/d/c/d/b/ | %109
{d} c>BA/G/ A/c/f/a/d/c/{c} B>AG/F/ G/B/=e/g/c/B/ | %110
 A/4F/4=E/4F/4G/4A/4B/4c/4d/4c/4B/ A/c/=e/f/g/B/ A/F/E/F/c cB/A/G/F/ | =E3 z z8 | z4 z8 | %113
 c/A/G/F/=E/F/{F} d3- d/a/g/f/g/e/{d} c3- | c/_g/f/=e/f/d/{c} B3- B/c/B/A/G/F/ G/A/B/d/c/B/ | %115
 A/=E/F/A/d/c/ d/a/4f/4e/4=d/4e/4d/4e/4d/4c/4d/4 e/F/G/B/e/d/ e/b/4g/4f/4=e/4f/4e/4f/4e/4d/4e/4 | %116
 [ff]/c/f/g/a/g/ b/a/g/f/=e/f/{f} =e3- e>c{d}c/4=B/4c/ | %117
 a/g/f/=e/f/a/ =d/_e/f/=B/c/d/ A/G/A/F/G/c/ B/e/d/f/e/d/ | %118
 g/c/=B/c/f/=d/ e/c/e/d/c/B/ c3- c/G/A/_B/c/_d/ | e3- e/g/a/f/e/=d/ e3- e/a/b/g/f/e/ | %120
{e} =d3- d/e/f/c/B/A/ G/A/B/F/E/=D/ E/F/G/=A/B/c/ | %121
{c} d/=A/B/=E/F/B/ d/e/d/c/d/f/{e} d/_A/B/F/G/B/ d/e/d/c/d/b/ | %122
 c/d/c/B/c/A/ E/G/A/B/c/d/ e/f/e/d/e/c/ A/B/c/=d/e/f/ | %123
 _g/=d/e/=A/B/e/ g/a/g/f/g/b/ g/_d/e/B/c/e/ g/a/g/f/g/_A/ | %124
 f/_g/f/e/f/d/ B/=A/B/_G/F/G/ e/f/e/d/e/c/ A/=G/A/F/=E/F/ | %125
 d/e/d/c/d/B/{A} _G3- G/d/c/B/c/A/{A} F3- | F/_c/B/=A/B/_G/{F} E3- E/B/A/B/e/=c/ d/B/d/c/B/A/ | %127
 [BB]/4A/4B/- B2 z2 z4 [BB]/4A/4B/- B2- | %128
 B/G/E/=D/E/B,/ E/F/G/A/B- B/4c/4B/4A/4B/G/=E/F/ G/A/B/d/c/B/ | %129
 A/C/=D/=E/F/G/ A/4G/4F/4=E/4F/A/d/4c/4d/- d/B,/C/_D/_E/F/ G/4F/4_E/4=D/4E/G/c- | %130
 c/A,/B,/C/=D/E/ F/4E/4_D/4C/4D/F/B- B/d/c/B/=e/f/ g/e/f/=d/c | %131
 z3 _e/4d/4e/- e2- e/_c/B/A/=d/e/ f/4e/4d/e/4d/4=c/B | %132
 z3 d/4c/4d/- d2- d/__B/A/G/c/d/ e/4f/4e/4d/4c/4d/4e/4d/4_B | A3- A/c/d/B/A/G/ A3- A/d/e/c/B/A/ | %134
 G3- G/A/B/F/E/D/ C/D/E/4D/4C/D/4C/4B,/ A,3- | %135
 A,/_G/F/E/=D/F/ A/B/A/=G/A/_c/ A/E/F/A/c/B/ c/A/=d/e/f/A/ | %136
 _G/A/G/F/G/E/ B,/=D/E/F/G/A/ B/c/B/A/B/=G/ E/F/G/=A/B/c/ | %137
 d/=A/B/=E/F/B/ d/e/d/c/d/f/ d/_A/B/F/G/B/ d/e/d/c/d/b/ | %138
 c/d/c/B/c/A/ F/=E/F/D/C/D/ B/c/B/A/B/G/ E/=D/E/C/=B,/C/ | A/B/A/G/A/F/ D3- D/A/G/F/G/E/ C3- | %140
 C/_G/F/=E/F/D/ B,3- B,/F/=E/F/B/=G/ A/F/A/G/F/E/ | F3 z z8 | z12 | z12 | %144
[M:3/8][Q:1/4=96]"^Andante" z2 e | a/4g/4ag/4f/4e/4d/4c/4B/4 | c-c/4B/4c/4d/4c/4B/4A/4G/4 | %147
 A3/2G/4F/4E/4D/4C/4B,/4 | B,/4A,/4B,/4A,/4B,/4A,/4B,/4A,/4A | E/B/c/A/B/d/ | E/c/d/B/c/e/ | %151
 A/d/e/c/d/f/ | cBe | a/4g/4ag/4f/4e/4d/4c/4B/4 | c3/2c/4d/4c/4B/4A/4G/4 | %155
 A3/2G/4F/4E/4D/4C/4B,/4 | B,/4A,/4B,/4A,/4A,e | f/c/d/f/B/d/ | g/c/d/f/B/d/ | a/c/d/f/B/d/ | %160
 b-b/4a/4g/4f/4e/4d/4c/4B/4 | c/e/g/b/a/f/ | =d/e/4f/4 e>_d | c/A/G/B/A/F/ | %164
 =D/E/4F/4>E/4E/4E/E/F/4G/4 | A/B/4c/4 d3/2c/4B/4 | c/d/4e/4 f3/2e/4d/4 | e/f/4g/4 ac/4B/4c/4B/4 | %168
 A2 e |{d} c3- | c3/2d/4e/4d/4c/4B/ | A3- | A3/2A/4B/4c/4d/4e/ | f/g/a/4g/4f/4g/4a- | %174
 a/g/4a/4b/4a/4g/4f/<e/d/4 |{c} c3- | c3/2(3c/4d/4e/4d/c/ | d/4c/4B/B/=d/d/e/ | %178
 A3/2(3A/4B/4c/4B/A/ | B/4A/4G/G/=d/d/e/ | F3/2(3F/4G/4A/4G/F/ | E/=D/4E/4F/4G/4A/4B/4c- | %182
 c/B/e/4d/4e/4d/4e/4d/4e/ | E3- | E2 c/4B/4A/4B/4 | c/G/A/c/F/A/ | =d/G/A/c/F/A/ | e/G/A/c/F/A/ | %188
{F} ff/4e/4=d/4c/4B/4A/4G/4F/4 |{F} G3- | G3/2A/4B/4A/4G/4F/ |{F} E3- | E3/2E/4F/4G/4A/4B/ | %193
 c/=d/e/4d/4c/4d/4e- | e/=d/4e/4f/4e/4d/4c/4B/A/ |{A} G3- | G>EF/8E/8=D/4E/ | B,/F/G/E/F/A/ | %198
 B,/G/A/F/G/B/ | E/A/B/G/A/c/ |{G} F2 B | c/4B/4c/4B/4c/4B/4c/4B/4c/4B/4c/4B/4 | %202
 c/4B/4c/4B/4c/4B/4c/4B/4c/4B/4c/4B/4 | c/4B/4c/4B/4c/4B/4c/4B/4c/4B/4c/4B/4 | %204
 (6:4:4c/4B/4E/F/(3G/A/B/(3B/c/d/ | (3c/F/G/(3A/B/c/(3c/=d/e/ | (3=d/G/A/(3B/c/d/(3d/e/f/ | %207
{f} e3/2=d/4e/4f/4e/4d/ |{=d} e3/2e/4f/4_g/4f/4e/ |{e} d3/2c/4d/4e/4d/4c/ |{c} d3/2d/4e/4f/4e/4d/ | %211
 (3c/a/g/(3f/e/=d/(3d/c/B/ | (3B/g/f/(3e/=d/c/(3c/B/A/ | (3A/f/e/(3=d/c/B/(3B/A/G/ | %214
 G3/2=A/4B/4c/4B/4A/ | g/fe/4=d/4e/c/ | =A/B/4c/4 B2- | B2 z | z C/4B,/4C/4B,/4C/4B,/4C/4=D/4 | %219
 E/F/4G/4 A3/2G/4F/4 | G/A/4B/4 c3/2B/4A/4 | B/c/4=d/4eG/4F/4E/4F/4 | E2 B | %223
 e3/2=d/4c/4B/4A/4G/4F/4 | G-G/4F/4G/4A/4G/4F/4E/4=D/4 | E3/2=D/4C/4B,/4[I:staff +1]A,/4G,/4F,/4 | %226
 E,[I:staff -1] z B | c/4B/4c/4B/4c/4B/4c/4B/4c/4B/4c/4B/4 | c/4B/4c/4B/4c/4B/4c/4B/4c/4B/4c/4B/4 | %229
 c/4B/4c/4d/4e/4d/4c/d/4c/4B/ | c/A/G/A/c | d/4c/4d/4c/4d/4c/4d/4c/4d/4c/4d/4c/4 | %232
 d/4c/4d/4c/4d/4c/4d/4c/4d/4c/4d/4c/4 | d/4c/4d/4e/4f/4e/4d/e/4d/4c/ | d/B/=A/B/F/B/4c/4 | %235
 d/c/4B/4 g>B | A/G/4F/4 f/4e/4fe/ | (3d/c/B/(3A/G/F/(3=E/F/G/ | %238
 D/4C/4D/4C/4D/4C/4D/4C/4D/4C/4D/4C/4 | D/4C/4D/4C/4D/4C/4D/4C/4D/4C/4D/4C/4 | %240
 D/4C/4D/4C/4D/4C/4D/4C/4D/4C/4D/4C/4 | D/4C/4D/4C/4D/4C/4D/4C/4D/4C/4D/4C/4 | %242
 (6:4:4D/4C/4F/=E/(3F/G/A/(3A/G/F/ | (3d/F/=E/(3F/G/A/(3A/G/F/ | (3=e/F/=E/(3F/G/A/(3A/G/F/ | %245
 (3f/=e/f/(3b/a/g/(3a/g/f/ | (3=e/=d/c/(3_d/c/B/(3c/B/A/ |{G} F(3F/=E/F/(3_G/F/=E/ | %248
 F(3F/c/d/(3_e/d/c/ | d-(3d/F/G/(3A/G/F/ | =E-(3=E/B/c/(3d/c/B/ | g(3g/c/=d/(3=e/f/g/ | %252
 (3a/g/f/{f}_g3/2f/4=e/4 | (3f/_e/d/{d}c3/2f/4e/4 | (3d/c/B/(3A/G/F/(3B/A/G/ | F/=E/F/A/D/F/ | %256
 B/F/G/B/E/G/ | c/G/=A/c/F/A/ | d-d/4e/4d/4c/4B/4A/4G/4F/4 | G/=D/E/G/C/E/ | A/E/F/A/D/F/ | %261
 B/F/G/B/E/G/ | c z c | (3=d/e/f/B3/2G/4F/4 | (3G/=B/=d/f3/2e/4d/4 | (3e/f/g/B3/2A/4G/4 | %266
 (3A/c/e/g3/2f/4e/4 | (3f/g/a/c3/2=B/4=A/4 | (3=B/=d/f/a3/2g/4f/4 | (3g/f/e/(3=d/e/f/(3e/d/c/ | %270
 A/4G/4A/4G/4A/4G/4A/4G/4A/4G/4A/4G/4 | A/4G/4A/4G/4A/4G/4A/4G/4A/4G/4A/4G/4 | %272
 A/4G/4A/4G/4A/4G/4A/4G/4A/4G/4A/4G/4 | A/4G/4A/4G/4A/4G/4A/4G/4A/4G/4A/4G/4 | %274
 (3G/F/=E/(3F/G/A/(3B/c/d/ | (3e/c/d/A3/2c/4d/4 | (3f/c/d/(3A/c/d/(3F/c/d/ | (3e/c/d/A3/2c/4d/4 | %278
 (3f/c/d/(3A/c/d/(3F/c/=d/ |{f} (3e/f/g/(3a/g/f/{f}g- | (3g/f/e/(3=d/e/f/(3=B/c/d/ | %281
 G/c/ee/4=d/4c/4d/4 | c2 e | a/4g/4ag/4f/4e/4d/4c/4B/4 | c-c/4B/4c/4d/4c/4B/4A/4G/4 | %285
 A3/2G/4F/4E/4D/4C/4B,/4 | B,/4A,/4B,/4A,/4B,/4A,/4B,/4A,/4A | E/B/c/A/B/d/ | E/c/d/B/c/e/ | %289
 A/d/e/c/d/f/ | cBe |{d} c3- | c3/2d/4e/4d/4c/4B/ | A3- | A3/2-A/4B/4c/4d/4e/ | %295
 f/g/a/4g/4f/4g/4a- | a/g/4a/4b/4a/4g/4f/<e/d/4 | c3- | (3c/A,/B,/(3C/D/E/(3E/F/_G/ | %299
 (3F/B,/C/(3D/E/F/(3F/=G/A/ | (3G/C/D/(3E/F/G/(3G/A/B/ | A3/2G/4A/4B/4A/4G/ | A3/2A/4B/4_c/4B/4A/ | %303
 _G3/2F/4G/4A/4G/4F/ | _G3/2G/4A/4B/4A/4G/ | (3F/d/c/(3B/A/G/(3G/F/E/ | (3E/c/B/(3A/G/F/(3F/E/D/ | %307
 (3D/B/A/(3G/F/E/(3E/D/C/ | C/4B,/4C=D/4E/4F/4E/4D/ | _c/BA/4G/4A/F/ | =D/E/4F/4 E2- | E2 z | %312
 z2 e/4d/4e/- | (3e/c/d/(3e/f/g/(3a/g/a/ | d3/2d/4e/4f/4e/4d/ | (3d/c/B/(3c/e/g/(3a/g/a/ | %316
 c3/2B/4c/4d/4c/4B/ | A/G/4A/4B/4c/4d/4e/4f- | f/e<_GA/ | A3- | A/c/e/B/c/e/ | %321
 a3/2g/4f/4e/4d/4c/4B/4 | c3/2c/4d/4c/4B/4A/4G/4 | A3/2G/4F/4E/4D/4C/4B,/4 | %324
 B,/4A,/4B,/4A,/4B,/4A,/4B,/4A,/4A | E/B/c/A/B/d/ | E/c/d/B/c/e/ | A/d/e/c/d/f/ | %328
 c/4B/4c/4B/4c/4B/4c/4B/4e | a/4g/4ag/4f/4e/4d/4c/4B/4 | cc/4B/4c/4d/4c/4B/4A/4G/4 | %331
 A3/2G/4F/4E/4D/4C/4B,/4 | B,/4A,/4B,/4A,/4B,/4A,/4B,/4A,/4e | f/c/d/f/B/d/ | g/c/d/f/B/d/ | %335
 a/c/d/f/B/d/ | bb/4a/4g/4f/4e/4d/4c/4B/4 | c/e/g/b/a/f/ | =d/e/4f/4 e>_d | c/A/G/B/A/F/ | %340
 =D/E/4F/4 E3/2F/4G/4 | A/B/4c/4 d3/2c/4B/4 | c/d/4e/4 f3/2e/4d/4 | e/f/4g/4 ac/4B/4A/4B/4 | %344
 !fermata!A2 z |] %345
V:2
 A,,A, z2 z4 | G,,G, z2 z4 | z A,/G,/ A,F, =D,F,D,B,, | G,,G,/F,/ G,E, C,E,C,A,, | %4
 F,,F,E,E,, =D,,=D,C,C | B,B,,E,G, A,,A,/G,/ A,F, | G,,G,/F,/ G,E, F,,F,/E,/ F,B,, | %7
 E,,F,,/G,,/ A,,2- A,,G,,A,,B,, | E,,E, z2 z4 | D,,D, z2 z4 | C,C z2 z4 | A,,A, z2 z4 | %12
 D,DG,B, C,CF,A, | B,,B,E,G, A,,A,F,C, | =D,=D,,D,,D, E,E,,E,,E, | F,F,,F,,F, C,/B,,/C,/D,/ E,E,, | %16
 A,,A,,A,,, z2 A,,A,,, z | z2 C,A,, G,,E,E,, z | z E,E,, z z2 G,E, | A,AA, z2 AA, z | %20
 z A,C,A, D,F,B,D, | C,E,A,C, B,,G,A,A,, | E,E z2 z4 | D,D z2 z4 | z C,/B,,/ A,,G,, F,,F,E,D, | %25
 C,D,E,E,, A,,A,/G,/ A,F, | G,,G,/F,/ G,E, F,,F,/E,/ F,B,, | E,,E,/=D,/ E,E,, E,,F,/E,/ F,F,, | %28
 G,,G,/F,/ G,G,, A,,B,,C,A,, | B,,B,,, z/ B,/A,/G,/ F,=D,B,,D, | E,E,, z/ E/D/C/ B,G,E,G, | %31
 A,F, G,/B,/A,/C/ B,=A,B,B,, | E,,E, z2 z4 | G,,G, z2 z4 | z A,/G,/ A,F, =D,F,D,B,, | %35
 G,,G,/F,/ G,E, C,E,C,A,, | F,,F,E,E,, =D,,=D,C,C | B,B,,E,G, A,,A,/G,/ A,F, | %38
 G,,G,/F,/ G,E, F,,F,/E,/ F,B,, | E,,F,,/G,,/ A,,2- A,,G,,A,,B,, | E,,EG,B, E,G,B,,E, | %41
 G,,B,,E,,E, A,,A, z2 | z A,C,E, A,,C,E,,A,, | C,,E,,A,,,A,, D,,F,/E,/ D,D | %44
 _G,F,E,D, C,E,/D,/ C,E, | F,E,D,C, B,,D,/C,/ B,,D, | C,CB,B,, =A,,=A,B,C | %47
 F,/_G,/F,/E,/ D,/C,/B,,/=A,,/ B,,/C,/D,/E,/ F,F,, | B,,B, z2 z4 | A,,A, z2 z4 | %50
 G,,G,/A,/ G,F, E,F,G,E, | A,,A, z A,, D,,D,/C,/ B,,D, | G,,G, z G,, C,,C,/B,,/ A,,C, | %53
 F,,/A,,/C,/B,,/ A,,/G,,/A,,/F,,/ G,,/B,,/D,/C,/ B,,/A,,/B,,/G,,/ | %54
 =A,,/C,/E,/_G,/ F,/E,/D,/C,/ B,,F, B,/=A,/B,- | B,A,/G,/ A,F, DB,CC, | F,,F, z2 z4 | E,,E, z2 z4 | %58
 =D,,=D,/E,/ D,C, B,,B,/C/ =DB, | E,E z E, A,,A,/G,/ F,A, | =D,=D z D, G,,G,/F,/ E,G, | %61
 C,/G,/F,/G,/ A,/G,/F,/G,/ =D,/G,/F,/G,/ A,/G,/F,/G,/ | E,/G,/F,/G,/ A,/G,/F,/E,/ F,G,A,=D, | %63
 G,/=B,/=A,/C/ B,/=D/G,/F,/ E,/G,/F,/_A,/ G,G,, | C,C z2 z4 | G,,G, z2 z4 | %66
 C/G,/E,/G,/ C,/=D,/E,/C,/ F,F,, z F, | B,/F,/D,/F,/ B,,/C,/D,/B,,/ E,E,, z E, | %68
 A,,A,/G,/ A,A,, B,,B,/A,/ B,B,, | C,C/B,/ CC, D,E,F,D, | %70
 E,E,, z/ E,/G,/E,/ F,F,, z/ F,,/A,,/F,,/ | G,,E, z/ E,/F,/G,/ A,A,, z/ F,,/G,,/A,,/ | %72
 B,,/C,/D,/C,/ B,,A,, G,,/A,,/B,,/A,,/ G,,F,, | E,,E, z/ E,,/F,,/G,,/ A,,/B,,/C,/B,,/ A,,G,, | %74
 F,,/G,,/A,,/G,,/ F,,E,, =D,,F,/E,/ =D,/E,/F,/E,/ | =D,/E,/F,/G,/ A,F, D,/C,/B,,/C,/ D,F, | %76
 A,/G,/F,/E,/ =D,/B,,/C,/D,/ E,/F,/G,/A,/ B,/C/B,/A,/ | G,/A,/G,/F,/ E,/D,/C,/B,,/ C,D,E,E,, | %78
 A,,A, z2 z4 | E,E z2 z4 | z A,C,E, A,,C,E,,A,, | C,,E,,A,,,A,, D,,D, z/ E,/D,/C,/ | %82
 B,,/A,,/G,,/A,,/ B,,C, D,/E,/D,/C,/ D,F, | B,,D,G,,B,, C,/D,/E,/D,/ C,/B,,/A,,/G,,/ | %84
 F,,F,/E,/ D,C, B,,B, B,,C,/D,/ | E,,E,/D,/ C,B,, A,,A, A,,B,,/C,/ | %86
 B,,B,A,A,, G,,G, z/ G,/A,/B,/ | E,E,,F,,G,, A,,F,,D,,E,, | A,,A, z2 z4 | G,,G, z2 z4 | %90
 z A,/G,/ A,F, =D,F,D,B,, | G,,G,/F,/ G,E, C,E,C,A,, | F,,F,E,E,, =D,,=D,C,C | %93
 B,B,,E,G, A,,A,/G,/ A,F, | G,,G,/F,/ G,E, F,,F,/E,/ F,B,, | E,,F,,/G,,/ A,,2- A,,G,,A,,B,, | %96
 E,,E, z2 z4 | D,,D, z2 z4 | C,C z2 z4 | A,,A, z2 z4 | D,DG,B, C,CF,A, | B,,B,E,G, A,,A,F,C, | %102
 =D,=D,,D,,D, E,E,,E,,E, | F,F,,F,,F, C,/B,,/C,/D,/ E,E,, | [A,,,A,,]2 z2 z4 | %105
[M:12/8] F,,3 z2 F, _F,3 z2 E, | =D,3 z2 _D, C,2 D, B,,2 C, | F,,3 z2 F,, C,3 z2 C, | %108
 F,3 z2 F, B,,3 z2 E, | A,,3 z2 F, G,3 z2 _F, | F,3 z2 C, F,,2 E,, D,,2 D, | C,3 z2 C, D,3 z2 =D, | %112
 E,3 z2 _F, =F,2 D, B,,2 C, | F,,3 z2 F, _F,3 z2 E, | =D,3 z2 _D, C,2 D, B,,2 C, | %115
 F,,3 z2 F, G,3 z2 G,, | A,,2 F,, D,2 B,, C,2 G, C2 =E, | F,3 z2 F,, F,3 z2 =B,, | %118
 E,2 A,, F,,2 G,, C,2 G,, C,,2 z | AEC A,2 A GEB, G,2 G | F=DB, F,2 D EB,G, E,D,C, | %121
 B,,3 z2 A,, G,,3 z2 E,, | A,,3 z2 B,, C,3 z2 =D, | E,3 z2 D, C,3 z2 A,, | D,3 z2 _G, C,3 z2 F, | %125
 B,,3 z2 B, =A,3 z2 _A, | G,3 z2 _G, F,2 G, E,2 F, | B,,3 z2 B,, A,,3 z2 A,, | %128
 G,,3 z2 G,, C,3 z2 C, | F,,3 z2 F =E z4 _E | =D z4 _D C2 G, C,2 B, | %131
 =A,2 z z2 F, B,2 F, B,,2 _A, | G,2 z z2 E, A,2 E, A,,2 _G, | F,A,F, D,2 D,, A,,A,E, C,2 F, | %134
 B,,D,B,, E,2 E,, A,,C,E, A,A,,_G, | F,2 z z2 E, =D,2 z z2 B,, | E,2 z z2 F, G,2 z z2 =A, | %137
 B,2 z z2 A, G,2 z z2 E, | A,,2 z z2 D, G,,2 z z2 C, | F,,2 z z2 F, _F,3 z2 E, | %140
 =D,3 z2 _D, C,2 D, B,,2 C, | F,,3 z2 F, _F,3 z2 E, | =D,3 z2 _D, C,2 D, B,,2 C, | F,,3 z3 z2 z4 | %144
[M:3/8] z2 A,, | A,A,G, | A,A,E, | F,D,E, | A,,/B,,/C,/D,/E,/F,/ | G,F,G, | A,G,A, | F,A,D, | %152
 E,/F,/E,/D,/C,/B,,/ | A,,A,,G,, | A,,A,,E,, | F,,D,,E,, | A,,/G,,/A,,/B,,/C,/A,,/ | D,D,,D, | %158
 E,E,,E, | F,F,,F, | G,G,,G, | A,A,A, | A,G,/F,/G,/E,/ | A,A,,A,, | A,,G,,/F,,/E,,/D,,/ | %165
 C,,F,,G,, | A,,D,,D, | A,C,E, | A,,2 A, | AAA | EEE | FFF | CCC | DDC | B,E E, | %175
 A,,/C,/E,/B,,/C,/E,/ | A,EA | GFE | FE=D | ECB, | A,F,A, | B,B,A, | G,A,B,, | %183
 E,,/G,,/B,,/F,,/G,,/B,,/ | E,/=D,/E,/F,/G,/E,/ | A,A,,A, | B,B,,B, | CC,C | =D=D,D | EEE | %190
 B,B,B, | CCC | G,G,G, | A,A,G, | F,B,B,, | E,,/G,,/B,,/F,,/G,,/B,,/ | E,=D,C, | =D,C,D, | %198
 E,=D,E, | C,E,A,, | B,,/F,/B,/A,/G,/F,/ | G,E,=D, | E,E,,F,, | G,,A,,B,, | E,, z G,, | A,, z F,, | %206
 B,, z G,, | C,C_C | C=A,F, | B,,B,=A, | B,G,E, | A,, z F, | G,, z E, | F,, z =D, | E,, z E | %215
 =A,B,_G, | C,=D,B,, | E,E,E, | E,=D,/C,/B,,/A,,/ | G,,F,,B,, | E,,A,,F,, | G,, z/ G,/A,/B,/ | %222
 E,/B,,/E,/=D,/E,/F,/ | G,E,=D, | E,E,,F,, | G,,A,,B,, | E,,/G,,/B,,/F,,/G,,/B,,/ | E,EE | DDD | %229
 CC,E, | A,,A,G, | F,FF | EEE | DD,F, | B,,B,D | _F, z C, | F, z F,, | B,,C,D, | %238
 _F,,/G,,/C,/B,,/A,,/G,,/ | A,,F,,_F,, | F,,F,,G,, | A,,B,,C, | F,,A,,F,, | B,, z2 | C, z2 | %245
 D, z2 | C, z B,, | =A,,=A, z | F,,F, z | B,,B, z | G,,G, z | C,=E,C, | F,B,C | DA,F, | B,CC, | %255
 F,,F,/_F,/=F,- | F,E,/=D,/E,- | E,C,F, | B,,C,D, | E,,E,/=D,/E,- | E,D,/C,/D,- | D,B,,E, | %262
 A,,A,G, | F, z =D, | =B,, z G,, | C, z C, | C,, z C, | =D, z D, | =D,, z =D, | E,A,F, | %270
 G,/A,/G,/F,/E,/=D,/ | C, z2 | =D, z2 | E, z2 | F,F,,F,, | z F,,F,, | z F,,F,, | z F,,F,, | %278
 z F,=B,, | C, z =B,, | C, z =D, | E,/F,/G,G,, | C,/G,/C/D/C/B,/ | A,A,G, | A,A,E, | F,D,E, | %286
 A,,/B,,/C,/D,/E,/F,/ | G,F,G, | A,G,A, | F,A,D, | E,/F,/E,/D,/C,/B,,/ | A,,A,A, | E,EE | F,FF | %294
 C,CC | D,DC | B,E,E,, | A,,/C,/E,/B,,/C,/E,/ | A, z C, | D, z B,, | E, z C, | F,,F,_F, | %302
 F,=D,B,, | E,,E,=D, | E,C,A,, | D, z B,, | C, z A,, | B,, z G,, | A,, z A, | D,E,_C | F,G,E, | %311
 A,A,A, | A,G,/F,/E,/D,/ | C, z2 | B,, z2 | A,, z2 | D, z2 | D, z2 | C,D,E, | A,,A,E, | C,A,, z | %321
 A,,A,G, | A,A,E, | F,D,E, | A,,/B,,/C,/D,/E,/F,/ | G,F,G, | A,G,A, | F,A,D, | %328
 E,/F,/E,/D,/C,/B,,/ | A,,A,,G,, | A,,A,,E,, | F,,D,,E,, | A,,/G,,/A,,/B,,/C,/A,,/ | D,D,,D, | %334
 E,E,,E, | F,F,,F, | G,G,,G, | A,A,A, | A,G,/F,/G,/E,/ | A,A,,A,, | A,,G,,/F,,/E,,/D,,/ | %341
 C,,F,,G,, | A,,D,,D, | A,C,E, | !fermata!A,,2 z |] %345
V:3
 x8 | x8 | x8 | x8 | x8 | x8 | x8 | x8 | x8 | x8 | x8 | x8 | x8 | x8 | x8 | x8 | x8 | x8 | x8 | %19
 x8 | x8 | x8 | x8 | x8 | x8 | x8 | x8 | x8 | x8 | x8 | x8 | x8 | x8 | x8 | x8 | x8 | x8 | x8 | %38
 x8 | x8 | x8 | x8 | x8 | x8 | x8 | x8 | x8 | x8 | x8 | x8 | x8 | x8 | x8 | x8 | x8 | x8 | x8 | %57
 x8 | x8 | x8 | x8 | x8 | x8 | G,_A, x6 | x8 | x8 | x8 | x8 | x8 | x8 | x8 | x8 | x8 | x8 | x8 | %75
 x8 | x8 | x8 | x8 | x8 | x8 | x8 | x8 | x8 | x8 | x8 | x8 | x8 | x8 | x8 | x8 | x8 | x8 | x8 | %94
 x8 | x8 | x8 | x8 | x8 | x8 | x8 | x8 | x8 | x8 | x8 |[M:12/8] x12 | x12 | x12 | x12 | x12 | x12 | %111
 x12 | x12 | x12 | x12 | x12 | x12 | x12 | x12 | x12 | x12 | x12 | x12 | x12 | x12 | x12 | x12 | %127
 x12 | x12 | x12 | x12 | x12 | x12 | x12 | x12 | x12 | x12 | x12 | x12 | x12 | x12 | x12 | x12 | %143
 x12 |[M:3/8] x3 | x3 | x3 | x3 | x3 | x3 | x3 | x3 | x3 | x3 | x3 | x3 | x3 | x3 | x3 | x3 | x3 | %161
 x3 | x3 | x3 | x3 | x3 | x3 | x3 | x3 | x3 | x3 | x3 | x3 | x3 | x3 | x3 | x3 | x3 | x3 | x3 | %180
 x3 | x3 | x3 | x3 | x3 | x3 | x3 | x3 | x3 | x3 | x3 | x3 | x3 | x3 | x3 | x3 | x3 | x3 | x3 | %199
 x3 | x3 | x3 | x3 | x3 | x3 | x3 | x3 | x3 | x3 | x3 | x3 | x3 | x3 | x3 | x3 | x3 | x3 | x3 | %218
 x3 | x3 | x3 | x3 | x3 | x3 | x3 | x3 | x3 | x3 | x3 | x3 | x3 | x3 | x3 | x3 | x3 | x3 | x3 | %237
 x3 | x3 | x3 | x3 | x3 | x3 | x3 | x3 | x3 | x3 | x3 | x3 | x3 | x3 | x3 | x3 | x3 | x3 | x3 | %256
 x3 | x3 | x3 | x3 | x3 | x3 | x3 | x3 | x3 | x3 | x3 | x3 | x3 | x3 | x3 | x3 | x3 | x3 | x3 | %275
 x3 | x3 | x3 | x3 | x3 | x3 | x3 | x3 | x3 | x3 | x3 | x3 | x3 | x3 | x3 | x3 | x3 | x3 | x3 | %294
 x3 | x3 | x3 | x3 | x3 | x3 | x3 | x3 | x3 | x3 | x3 | x3 | x3 | x3 | x3 | x3 | x3 | x3 | x3 | %313
 x3 | x3 | x3 | x3 | x3 | x3 | x3 | x3 | x3 | x3 | x3 | x3 | x3 | x3 | x3 | x3 | x3 | x3 | x3 | %332
 x3 | x3 | x3 | x3 | x3 | x3 | x3 | x3 | x3 | x3 | x3 | x3 | x3 |] %345
V:4
 x8 | x8 | x8 | x8 | x8 | x8 | x8 | x8 | x8 | x8 | x8 | x8 | x8 | x8 | x8 | x8 | x8 | x8 | x8 | %19
 x8 | x8 | x8 | x8 | x8 | x8 | x8 | x8 | x8 | x8 | x8 | x8 | x8 | x8 | x8 | x8 | x8 | x8 | x8 | %38
 x8 | x8 | x8 | x8 | x8 | x8 | x8 | x8 | x8 | x8 | x8 | x8 | x8 | x8 | x8 | x8 | x8 | x8 | x8 | %57
 x8 | x8 | x8 | x8 | x8 | x8 | x8 | x8 | x8 | x8 | x8 | A z z2 z4 | x8 | x8 | x8 | x8 | x8 | x8 | %75
 x8 | x8 | x8 | x8 | x8 | x8 | x8 | x8 | x8 | x8 | x8 | x8 | x8 | x8 | x8 | x8 | x8 | x8 | x8 | %94
 x8 | x8 | x8 | x8 | x8 | x8 | x8 | x8 | x8 | x7 D | C2 z2 z4 |[M:12/8] x12 | x12 | x12 | x12 | %109
 x12 | x12 | x12 | x12 | x12 | x12 | x12 | x12 | x12 | x12 | x12 | x12 | x12 | x12 | x12 | x12 | %125
 x12 | x12 | x12 | x12 | x12 | x12 | x12 | x12 | x12 | x12 | x12 | x12 | x12 | x12 | x12 | x12 | %141
 x12 | x12 | x12 |[M:3/8] x3 | x3 | x3 | x3 | x3 | x3 | x3 | x3 | x3 | x3 | x3 | x3 | x3 | x3 | %158
 x3 | x3 | x3 | x3 | x3 | x3 | x3 | x3 | x3 | x3 | x3 | x3 | x3 | x3 | x3 | x3 | x3 | x3 | x3 | %177
 x3 | x3 | x3 | x3 | x3 | x3 | x3 | x3 | x3 | x3 | x3 | x3 | x3 | x3 | x3 | x3 | x3 | x3 | x3 | %196
 x3 | x3 | x3 | x3 | x3 | x3 | x3 | x3 | x3 | x3 | x3 | x3 | x3 | x3 | x3 | x3 | x3 | x3 | x3 | %215
 x3 | x3 | x3 | x3 | x3 | x3 | x3 | x3 | x3 | x3 | x3 | x3 | x3 | x3 | x3 | x3 | x3 | x3 | x3 | %234
 x3 | x3 | x3 | x3 | x3 | x3 | x3 | x3 | x3 | x3 | x3 | x3 | x3 | x3 | x3 | x3 | x3 | x3 | x3 | %253
 x3 | x3 | x3 | x3 | x3 | x3 | x3 | x3 | x3 | x3 | x3 | x3 | x3 | x3 | x3 | x3 | x3 | x3 | x3 | %272
 x3 | x3 | x3 | x3 | x3 | x3 | x3 | x3 | x3 | x3 | x3 | x3 | x3 | x3 | x3 | x3 | x3 | x3 | x3 | %291
 x3 | x3 | x3 | x3 | x3 | x3 | x3 | x3 | x3 | x3 | x3 | x3 | x3 | x3 | x3 | x3 | x3 | x3 | x3 | %310
 x3 | x3 | x3 | x3 | x3 | x3 | x3 | x3 | x3 | x3 | x3 | x3 | x3 | x3 | x3 | x3 | x3 | x3 | x3 | %329
 x3 | x3 | x3 | x3 | x3 | x3 | x3 | x3 | x3 | x3 | x3 | x3 | x3 | x3 | x3 | x3 |] %345
V:5
 z c/d/ ea ceAc | z B/c/ db dgBd | cA f2- fg/a/ b/a/g/a/ | bB e2- ef/g/ a/g/f/g/ | %4
 aA/G/ Aa/g/ aA/G/ Aa/g/ | ag/f/ ge c =d2 e/f/ | B=d- d/e/d/e/ A d2 e/f/ | GA/B/ cf Bb a/g/f/g/ | %8
 eG/A/ Be GBEG | z e/f/ gb egBe | z a/g/ ae ceAc | e_g/f/ ge ceAc | f B2 c/d/ e A2 B/c/ | %13
 d/c/d/e/ d/f/e/d/ c/B/c/d/ c/e/d/c/ | B/A/B/c/ B/c/A/B/ c/B/c/d/ c/d/B/c/ | %15
 d/c/d/e/ d/c/B/A/ eAEG | AEAG A/B/c/d/ ed | c z4 Be=d | e/f/g/a/ ba g z z2 | %19
 z eag a/b/c'/d'/ e'g | a z z2 z4 | z8 | z G/A/ Be GBEG | z e/f/ gb egBe | ac/d/ e z2 A/B/ c z | %25
 z z4 c f2- | fe/=d/ e2- ed/c/ d>e | %27
 f/4e/4f/4e/4f/4e/4f/4e/4 f/4e/4f/4e/4f/4e/4f/4e/4 f/4e/4f/4e/4f/4e/4f/4e/4 f/4e/4f/4e/4f/4e/4f/4e/4 | %28
 f/4e/4f/4e/4f/4e/4f/4e/4 f/4e/4f/4e/4f/4e/4f/4e/4 z4 | z8 | z8 | z8 | z e/=d/ eB GBEG | %33
 Bd/c/ dB GBEG | cA f2- fg/a/ b/a/g/a/ | bB e2- ef/g/ a/g/f/g/ | aA/G/ Aa/g/ aA/G/ Aa/g/ | %37
 ag/f/ ge c =d2 e/f/ | B=d- d/e/d/e/ A d2 e/f/ | GA/B/ cf Bb a/g/f/g/ | eG/A/ B z2 B/c/ d z | %41
 z z4 c/d/ ea | ceAc Ec/d/ e z | z e/f/ _g z2 d/e/ f z | z4 z c/d/ e z | z z4 B/c/ d z | %46
 z _g/f/ g z4 e/d/ | e z z2 z4 | z d/e/ fb dfBd | FB/c/ =df BdFB | Ed/c/ d z2 d/c/ d z | %51
 z eAc F z z2 | z dGB =E z z2 | z A/B/ c z2 B/c/ d z | z c/d/ e z z4 | z8 | z A/B/ cf AcFA | %57
 z f/g/ =ac' facf | Ba/g/ a z2 a/g/ a z | z beg c z z2 | z a=df _c z z2 | z E=DE z EDE | %62
 z E=DE z4 | z8 | z e/f/ gc' egce | z =d/e/ fa df=Bd | e4- e/d/e/f/ e/_g/f/e/ | %67
 d4- d/c/d/e/ d/f/e/d/ | ce a6- | a4- aA d2- | dE/D/ Ec- cF/E/ FB- | BG/F/ GB EACF | %72
 B,B/c/ d z2 G/A/ B z | z g/a/ b z2 A/B/ c z | z F/G/ A z2 f/g/ a z | z a=df BdFA | =DFB, z z4 | %77
 z8 | z c/d/ ea ceAc | z B/c/ db dgBd | cC/D/ E z2 E/F/ _G z | z z4 F/_G/ Ad | GBDG B,G/A/ B z | %83
 z g/a/ b z2 c/d/ e z | z z4 B/c/ d z | z z4 A/B/ c z | z b/a/ b z4 d/c/ | d z z2 z4 | %88
 z c/d/ ea ceAc | z B/c/ db dgBd | cA f2- fg/a/ b/a/g/a/ | bB e2- ef/g/ a/g/f/g/ | %92
 aA/G/ Aa/g/ aA/G/ Aa/g/ | ag/f/ ge c =d2 e/f/ | B=d- d/e/d/e/ A d2 e/f/ | GA/B/ cf Bb a/g/f/g/ | %96
 eG/A/ Be GBEG | z e/f/ gb egBe | z a/g/ ae ceAc | e_g/f/ ge ceAc | f B2 c/d/ e A2 B/c/ | %101
 d/c/d/e/ d/f/e/d/ c/B/c/d/ c/e/d/c/ | B/A/B/c/ B/c/A/B/ c/B/c/d/ c/d/B/c/ | %103
 d/c/d/e/ d/c/B/A/ eAEG | A2 z2 z4 |[M:12/8] f2 c F2 a g2 c E2 g | f2 B D2 f =e2 f f2 e | %107
 f2 c F2 a g2 c =E2 b | a2 c F2 c d2 F G2 B | c2 =E F2 A B2 =D E2 G | A2 F c4- cF f2 B | %111
 c2 G c2 _f =f2 c =D2 a | g2 d _F2 b b>ga d'>c'b | a2 c F2 a g2 c E2 g | f2 B D2 f =e2 f f2 e | %115
 f2 F B,2 A B2 G C2 B | c2 f F2 d G2 B C2 g | a2 c F2 a =B2 =D G,2 g | c4- c/f/=d c4- c z | %119
 A2 e c'2 A G2 e b2 G | F2 =d a2 F E2 B g2 E | F2 d b2 F E2 d b2 d | E2 c a4- a_G F2 A | %123
 B,2 _G e2 B, A,2 A e2 C | D2 B f2 B C2 =A e2 A | B2 F B,2 d c2 F A,2 c | B2 E _G,2 B =A2 B _g>fe | %127
 d2 F B,2 d =d2 B B,2 d | e2 G B,2 e =e2 G C2 e | f2 c F2 a g2 c E2 g | f2 B D2 f =e2 z z2 e | %131
 f2 c F2 =A B,2 z z2 =d | e2 B E2 G A,2 z z2 A, | D2 A f2 D C2 A e2 C | B,2 G d2 B, A,2 E c2 E | %135
 =D2 A f2 A B,2 A f2 A | B,2 _G e3- e2 D C2 e | F2 d b2 F E2 e b2 G | A2 e c'2 f G2 d b2 =e | %139
 f2 c F2 a g2 c E2 g | f2 B D2 f _f2 =f d>cB | f2 c F2 a g2 c E2 g | f2 B D2 f =e2 f f2 e | %143
 f3 z3 z6 |[M:3/8] z2 e | a3/2g/4f/4e/4d/4c/4B/4 | c-c/4B/4c/4d/4c/4B/4A/4G/4 | %147
 A3/2G/4F/4E/4D/4C/4B,/4 | B,/4A,/4B,/4A,/4B,/4A,/4B,/4A,/4A | E/B/c/A/B/d/ | E/c/d/B/c/e/ | %151
 A/d/e/c/d/f/ |{c} B2 e | a3/2g/4f/4e/4d/4c/4B/4 | c-c/4B/4c/4d/4c/4B/4A/4G/4 | %155
 A3/2G/4F/4E/4D/4C/4B,/4 | A,2 e | f/c/d/f/B/d/ | g/c/d/f/B/d/ | a/c/d/f/B/d/ | %160
 b-b/4a/4g/4f/4e/4d/4c/4B/4 | c/e/g/b/a/f/ | =d/e/4f/4 e>_d | c/A/G/B/A/F/ | =D/E/4F/4 E3/2F/4G/4 | %165
 A/B/4c/4 d3/2c/4B/4 | c/d/4e/4 f3/2e/4d/4 | e/f/4g/4 ac/4B/4c/4B/4 | A2 c | eee | ggg | aaa | %172
 AAA | ABc | dGG | A3- | A2 A | eAG | AcF | EGB | cAA | A=DD | EcB | G3- | G2 B | c/G/A/c/F/A/ | %186
 =d/G/A/c/F/A/ | e/G/A/c/F/A/ | f-f/4e/4=d/4c/4B/4A/4G/4F/4 | GBB | =ddd | eee | EEE | EFG | A=DD | %195
 E3- | E2 z | z3 | z3 | z3 | z2 B | e3/2=d/4c/4B/4A/4G/4F/4 | G-G/4F/4G/4A/4G/4F/4E/4=D/4 | %203
 E3/2F/4G/4A/4B/4c/4=d/4 | eB z | cf z | =dg z | eg z | ec z | df z | dB z | ca z | Bg z | Af z | %214
 Ge z | z3 | z2 A | G/B/=d/f/e/d/ | =A/B/4c/4B z | z3 | z3 | z3 | z2 B | e3/2=d/4c/4B/4A/4G/4F/4 | %224
 G-G/4F/4G/4A/4G/4F/4E/4=D/4 | E3/2F/4G/4A/4B/4c/4=d/4 | e2 z | z3 | E/G/B/F/G/B/ | eAG | A z2 | %231
 z3 | F/=A/c/G/A/c/ | fB=A | B z2 | z d/c/4B/4g | z A/G/4F/4f | z3 | z2 c | %239
 f3/2e/4d/4c/4B/4A/4G/4 | A-A/4G/4A/4B/4A/4G/4F/4=E/4 | F3/2G/4A/4B/4c/4=d/4_f/4 | f z2 | d z2 | %244
 c z2 | B z2 | B z2 | z cc | z cc | z BB | z dd | _F z2 | z3 | z3 | z2 G | A/_F/F/A/D/=F/ | %256
 B/F/G/B/E/G/ | c/G/=A/c/F/A/ | d-d/4e/4d/4c/4B/4A/4G/4F/4 | G/=D/E/G/C/E/ | A/E/F/A/D/F/ | %261
 B/F/G/B/E/G/ | c-c/4d/4c/4B/4A/4G/4F/4E/4 | F=d/e/f | z =d/e/f | z e/f/g | z e/f/g | z f/g/a | %268
 z f/g/a | z3 | z2 =d | e/=B/c/e/G/c/ | f/=B/c/e/G/c/ | g/_c/=c/e/G/c/ | %274
 b/4a/4b/4a/4b/4a/4b/4a/4b/4a/4b/4a/4 | b/4a/4b/4a/4b/4a/4b/4a/4b/4a/4b/4a/4 | %276
 b/4a/4b/4a/4b/4a/4b/4a/4b/4a/4b/4a/4 | b/4a/4b/4a/4b/4a/4b/4a/4b/4a/4b/4a/4 | b/4a/4b/4a/4 z G | %279
 C/=D/4E/4 F3/2E/4D/4 | E/F/4G/4 A3/2G/4F/4 | G/c/ee/4=d/4e/4d/4 | c2 e | a3/2g/4f/4e/4d/4c/4B/4 | %284
 c-c/4B/4c/4d/4c/4B/4A/4G/4 | A3/2G/4F/4E/4D/4C/4B,/4 | B,/4A,/4B,/4A,/4B,/4A,/4B,/4A,/4A | %287
 E/B/c/A/B/d/ | E/c/d/B/c/e/ | A/d/e/c/d/f/ | B2 B | cee | ggg | aaa | AAA | ABc | dGG | A3- | %298
 AE z | FB z | Gc z | Ac z | AF z | _GB z | _GE z | Fd z | Ec z | DB z | CA z | z3 | z2 d | %311
 c/e/g/b/a/f/ | =d/e/4f/4e z | z ga | z bd | z ca | z Ba | z gb | a z2 | A,/C/E/B,/C/E/ | %320
 A/c/e/B/c/e/ | a3/2g/4f/4e/4d/4c/4B/4 | c-c/4B/4c/4d/4c/4B/4A/4G/4 | A3/2G/4F/4E/4D/4C/4B,/4 | %324
 B,/4A,/4B,/4A,/4B,/4A,/4B,/4A,/4A | E/B/c/A/B/d/ | E/c/d/B/c/e/ | A/d/e/c/d/f/ |{c} B2 e | %329
 a-a/g/4f/4e/4d/4c/4B/4 | c-c/4B/4c/4d/4c/4B/4A/4G/4 | A3/2G/4F/4E/4D/4C/4B,/4 | %332
 B,/4A,/4B,/4A,/4B,/4A,/4B,/4A,/4e | f/c/d/f/B/d/ | g/c/d/f/B/d/ | a/c/d/f/B/d/ | %336
 b-b/4a/4g/4f/4e/4d/4c/4B/4 | c/e/g/b/a/f/ | =d/e/4f/4 e>_d | c/A/G/B/A/F/ | =D/E/4F/4 E3/2F/4G/4 | %341
 A/B/4c/4 d3/2c/4B/4 | c/d/4e/4 f3/2e/4d/4 | e/f/4g/4 ac/4B/4c/4B/4 | !fermata!A2 z |] %345
V:6
 z E,A,C E,A,C,E, | z E,B,,G,, G,B,DE, | A,E,C,A,, A, z z2 | z =D,B,,G,, G, z z2 | %4
 z C,/B,,/ C,C, B,,F,E,E, | =D,B,,B,,E, E,F,/E,/ F,B,,- | B,,G,,B,,E, C,F,A,,B,, | %7
 B,,E,A,,C, =D,E,C,F, | G,B,,E,G, B,,E,G,,B,, | z B,,E,G, B,EG,B, | z C/B,/ CA, E,A,C,E, | %11
 A,C,A,,C, E,A,C,E, | A,,B,,/C,/ D,B,, G,,A,,/B,,/ C,A,, | F,, B,,2 E, E,C,A,,E, | %14
 F,2 z F, E,2 z E, | D,2 z D, C,E,E,E, | E,A,,/B,,/ C,D, C,E,A,E, | E, z4 E,/F,/ G,A, | %18
 G,B,EB, B, z z2 | z A,/B,/ CB, A,A,,/B,,/ C,B,, | A,, z z2 z4 | z8 | z B,,E,G, B,,E,G,,B,, | %23
 z G,/A,/ B,E G,B,E,G, | A,E,A, z2 C,/D,/ E, z | z8 | z8 | z8 | z8 | z8 | z8 | z8 | %32
 z G,/F,/ G,E, B,,E,G,,B,, | E,G,,E,,G,, B,,E,G,,B,, | A,,E,C,A,, A, z z2 | z =D,B,,G,, G, z z2 | %36
 z C,/B,,/ C,C, B,,F,E,E, | =D,B,,B,,E, E,F,/E,/ F,B,,- | B,,G,,B,,E, C,F,A,,B,, | %39
 B,,E,A,,C, =D,E,C,F, | G,B,,E, z2 E,G,, z | z z4 E,A,C | E,A,E,C, E,E,A, z | %43
 z A,E, z2 F,/_G,/ A, z | z4 z E,/F,/ _G, z | z z4 D,/E,/ F, z | z z4 _G,,/F,,/ G,,_G, | %47
 F, z z2 z4 | z F,B,D F,B,D,F, | B,,=D,/E,/ F,B, D,F,B,,D, | E,E,/F,/ G,A, G,F,E,G, | E, z z2 z4 | %52
 z8 | z8 | z8 | z8 | z C,F,A, C,F,A,,C, | z C,F,=A, C,F,=A,,C, | F,B,,/C,/ =D,E, D,B,,B,B, | %59
 B, z z2 z4 | z8 | z8 | z8 | z8 | z G,CE G,CE,G, | z F,/E,/ =D,=B,, G,B,,D,G, | G,4 =A,4 | %67
 F,4 G,4 | E, z z2 z4 | z8 | z8 | z8 | z D,/E,/ F, z2 D,/C,/ B,, z | z B,/C/ D z2 C,/D,/ E, z | %74
 z C,/B,,/ A,, z2 F,B,, z | z =DF,B, B,, z z2 | z8 | z8 | z E,A,C E,A,C,E, | z E,B,,G,, G,B,DE, | %80
 A,,E,,A,, z2 A,C, z | z z4 A,,D,F, | G,D, D,C,/D,/ E,B,,E,, z | z B,/A,/ G, z2 E,/F,/ G, z | %84
 z z4 D,/E,/ F, z | z z4 C,/D,/ E, z | z z4 B,,/A,,/ B,,F,, | G,, z z2 z4 | z E,A,C E,A,C,E, | %89
 z E,B,,G,, G,B,DE, | A,E,C,A,, A, z z2 | z =D,B,,G,, G, z z2 | z C,/B,,/ C,C, B,,F,E,E, | %93
 =D,B,,B,,E, E,F,/E,/ F,B,,- | B,,G,,B,,E, C,F,A,,B,, | B,,E,A,,C, =D,E,C,F, | %96
 G,B,,E,G, B,,E,G,,B,, | z B,,E,G, B,EG,B, | z C/B,/ CA, E,A,C,E, | A,C,A,,C, E,A,C,E, | %100
 A,,B,,/C,/ D,B,, G,,A,,/B,,/ C,A,, | F,, B,,2 E, E,C,A,,E, | F,2 z F, E,2 z E, | %103
 D,2 z D, C,E,E,E, | E,2 z2 z4 |[M:12/8] A,3 z2 F, G,2 z z2 G, | A,F, z z2 B, G,2 F, D,2 C, | %107
 C,2 z z2 C C2 z z2 C | C2 z z2 F, F,2 z z2 E, | E,2 z z2 F, F,=E, z z2 C, | %110
 C,2 z z2 _F, C,2 C, D,2 D, | G,,2 z z2 G, F,2 z z2 F, | E,2 z z2 C, C,2 F, G,2 G, | %113
 F,2 z z2 F, G,2 z z2 G, | A,2 z z2 B, C2 A, G,2 C | C2 z z2 A, G,2 z z2 D, | %116
 C,2 A,, D,2 D, C,2 C, =E,2 G, | F,2 z z2 F, =D,2 z z2 D, | E,2 F, F,2 F, E,4- E, z | %119
 A,2 z z2 A, G,2 z z2 G, | F,2 z z2 F, E,2 z z2 E, | D,2 z z2 D, E,2 z z2 E, | %122
 E,2 z z2 D, C,2 z z2 B,, | E,2 z z2 _G, A,2 z z2 A, | A,2 z z2 B, B,2 z z2 =A, | %125
 F,2 z z2 B,, C,2 z z2 C, | D,2 z z2 E, F,2 E, B,,2 F, | F,2 z z2 F, F,2 z z2 F, | %128
 G,2 z z2 B,, C,2 z z2 G, | F,2 z z2 F, =E,2 z z2 _E, | =D,2 z z2 _D, C,2 z z2 G, | %131
 F,2 z z2 F, F,2 z z2 F, | E,2 z z2 E, E,2 z z2 E, | D,2 z z2 A, A,2 z z2 A, | %134
 B,2 z z2 B, C2 z z2 A, | A,2 z z2 _C B,2 z z2 B, | B,2 z z2 F, E,2 z z2 F, | %137
 F,2 z z2 F, E,2 z z2 E, | E,2 z z2 F, G,2 z z2 G, | F,2 z z2 F, G,2 z z2 G, | %140
 A,2 z z2 F, G,2 F, B,2 G, | A,3 z2 F, G,2 z z2 G, | A,F, z z2 B, G,2 F, D,2 C, | C,3 z3 z2 z4 | %144
[M:3/8] z2 A | EEE | EEE | CB,B, | C2 C | B,A,E | CB,A, | AAF | E2 E | EEE | EEE | CB,B, | %156
 C/B,/C/D/E/C/ | DF z | B,G z | cF z | B,EE | EDE | FB,E | EEE | FB,G, | E,A,B, | A,A,D | CEE | %168
 C2 A, | AAA | EEE | FFF | CCC | DDC | B,EB, | A,3- | A,EA | GFE | FE=D | ECB, | A,F,A, | B,B,A, | %182
 G,A,B, | B,3- | B,2 B, | A,C z | F,=D z | GC z | F,B,B, | EEE | B,B,B, | CCC | G,G,G, | A,A,G, | %194
 F,B,F, | E,3- | E,2 z | z3 | z3 | z3 | z2 =D | EB,B, | B,G,A, | G,G,F, | E,E z | A,C z | B,=D z | %207
 CG, z | Gc z | FB, z | FB z | EA z | =DG z | CF z | B,G z | z3 | z2 B, | B,A,B, | CF z | z3 | z3 | %221
 z3 | z2 E | B,B,B, | B,B,B, | B,CB, | B,2 E | EEE | DDD | CCB, | A,C=E | FFF | EEE | DDC | B, z2 | %235
 z3 | z3 | z3 | z2 =E | FCC | CA,B, | A,A,G, | F, z2 | z B,/C/B, | z C/D/C | z D/E/D | z =E/F/E | %247
 z =A,A, | z F,F, | z B,B, | z G,G, | C z2 | z3 | z3 | z2 C | C z F | D z G | F z F | F z B, | %259
 B, z E | C z F | E z E | ECE | A z F | =D z _c | G z G | E z A | A z F | F z2 | z3 | z2 G | GCC | %272
 =DDD | EEE | G/4F/4G/4F/4G/4F/4G/4F/4G/4F/4G/4F/4 | G/4F/4G/4F/4G/4F/4G/4F/4G/4F/4G/4F/4 | %276
 G/4F/4G/4F/4G/4F/4G/4F/4G/4F/4G/4F/4 | G/4F/4G/4F/4G/4F/4G/4F/4G/4F/4G/4F/4 | G/4F/4G/4F/4 z2 | %279
 z z2 | z z2 | z/ A/GF | E2 E | EEE | EEE | CB,B, | C2 C | B,A,E | CB,A, | AAF | E2 E | EAA | EEE | %293
 FFF | CCC | DDC | B,EB, | A,3- | A,C z | D,F, z | E,G, z | F,C, z | CF z | B,E, z | B,E z | %305
 A,D z | G,C z | F,B, z | E,C z | z3 | z2 E | EDE | FB z | z B,A, | z A,G, | z FE | z DC | z DG, | %318
 C z2 | z3 | C/E/A/D/E/A/ | cEE | EEE | CB,B, | C2 C | B,A,E | CB,A, | AAF | E2 E | EEE | EEE | %331
 CB,B, | C/B,/C/D/E/C/ | DF z | B,G z | cF z | B,EE | EDE | FB,E | EEE | FB,G, | E,A,B, | A,A,D | %343
 CEE | !fermata!C2 z |] %345
V:7
 z A/B/ ce AcEA | z G/A/ Bd BdGB | Ac/B/ cd/e/ f z z2 | z B/A/ B c/d/ e z z2 | %4
 z F/E/ Ff/e/ fF/E/ Ff/e/ | fe/=d/ eB A F2 G/A/ | B/c/B/A/ B/A/B/G/ A/B/A/G/ A/F/E/=D/ | %7
 E E2 A FEe=d | BE/F/ GB EGB,E | z G/A/ Be GBEG | z e/d/ ec AcEA | ce/d/ ec AcEA | %12
 FG/A/ BG EF/G/ AF | DFG B2 E A2- | AA/G/ A A2 A/G/ AA- | AA/G/ A A2 ECB, | CC/D/ E E2 A/B/ cG | %17
 A z4 G/A/ BB- | Be/f/ g=d e z z2 | z c/B/ AB ceAB | E z z2 z4 | z8 | z E/F/ GB EGB,E | %23
 z Beg BeGB | eA/B/ c z2 F/G/ A z | z8 | z8 | z8 | z8 | z8 | z8 | z8 | z B/A/ BG EGB,E | %33
 EB/A/ BG EGB,E | Ec/B/ c=d/e/ f z z2 | z B/A/ Bc/=d/ e z z2 | z F/E/ Ff/e/ fF/E/ Ff/e/ | %37
 fe/=d/ eB A F2 G/A/ | B/c/B/A/ B/A/B/G/ A/B/A/G/ A/F/E/=D/ | E E2 A FEe=d | BE/F/ G z2 G/A/ B z | %41
 z z4 A/B/ ce | AcEA CA/B/ c z | z e/d/ c z2 Ac z | z4 z A/B/ c z | z z4 FB z | %46
 z z2 _G/F/ G z2 c/B/ | c z z2 z4 | z B/c/ df BdFB | =DFB=d FBDF | B,B/A/ B z2 B/A/ BB | %51
 A z z2 z4 | z8 | z8 | z8 | z8 | z F/G/ Ac FACF | z =A/B/ cf AcFA | Bf/e/ f z2 f/e/ ff | %59
 e z z2 z4 | z8 | z GFG z GFG | z GFG z4 | z8 | z c/=d/ eg ceGc | z =B/c/ =df BdGB | %66
 c4- c/B/c/d/ c/e/d/c/ | B4- B/A/B/c/ B/d/c/B/ | A z z2 z4 | z8 | z8 | z8 | z FB z2 B/c/ d z | %73
 z e/f/ g z2 EA z | z A/B/ c z2 =d/e/ f z | z fB=d FBB, z | z8 | z8 | z A/B/ ce AcEA | %79
 z G/A/ Bd GBEG | AA,/B,/ C z2 C/D/ E z | z z4 D/E/ FA | DGB,E EE/F/ G z | z d/c/ B z2 Gc z | %84
 z z4 FB z | z z4 EA z | z z2 B/A/ B z2 B/A/ | B z z2 z4 | z A/B/ ce AcEA | z G/A/ Bd BdGB | %90
 Ac/B/ cd/e/ f z z2 | z B/A/ Bc/d/ e z z2 | z F/E/ Ff/e/ fF/E/ Ff/e/ | fe/=d/ eB A F2 G/A/ | %94
 B/c/B/A/ B/A/B/G/ A/B/A/G/ A/F/E/=D/ | E E2 A FEe=d | BE/F/ GB EGB,E | z G/A/ Be GBEG | %98
 z e/d/ ec AcEA | ce/d/ ec AcEA | FG/A/ BG EF/G/ AF | DFGB- BE A2- | AA/G/ AA- AA/G/ AA- | %103
 AA/G/ AA- AECB, | C2 z2 z4 |[M:12/8] c3 z2 d dc z z2 c | cB z z2 B B>cA G>AB | %107
 A2 z z2 f =e2 z z2 _f | f2 z z2 c B2 z z2 G | A2 z z2 A, DB, z z2 G | F2 z z2 G F2 A A2 B | %111
 _F2 z z2 c c2 z z2 B | B2 z z2 g g>=ef f2 e | f2 z z2 A B2 z z2 c | F2 z z2 F G2 d d2 G | %115
 A2 z z2 F E2 z z2 G | F2 c B2 G c2 =e g2 c | c2 z z2 c =d2 z z2 G | G2 A A2 G G4- G z | %119
 A2 z z2 A G2 z z2 G | F2 z z2 F E2 z z2 =A | B2 z z2 B B2 z z2 B | A2 z z2 F E2 z z2 B | %123
 B2 z z2 B e2 z z2 e | d2 z z2 d e2 z z2 c | d2 z z2 D E2 z z2 F | B,2 z z2 B, C2 B, E2 C | %127
 B,2 z z2 B B2 z z2 B | B2 z z2 B G2 z z2 c | c2 z z2 F =E2 z z2 _E | =D2 z z2 _D C2 z z2 c | %131
 c2 z z2 c B2 z z2 B | B2 z z2 B A2 z z2 c | d2 z z2 f e2 z z2 a | d2 z z2 g a2 z z2 _c | %135
 _c2 z z2 e f2 z z2 =d | e2 z z2 B B2 z z2 F | B2 z z2 B B2 z z2 B | A2 z z2 f f=e z z2 c | %139
 c2 z z2 A B2 z z2 c | F2 z z2 B c2 B F2 c | c3 z2 d dc z z2 c | cB z z2 B B>cA G>AB | %143
 A3 z3 z2 z4 |[M:3/8] z2 c | ccB | AAG | FFG | A2 E | E3- | E3 | DCA | G2 A | ccB | AAG | FFG | %156
 AEA | AB z | eB z | FA z | eBB | ABc | BB/A/B/G/ | ADC | B,B,B, | EFE | EDA | AAG | E2 A | ccc | %170
 GGG | ccc | eee | deE | FEE | E3- | E2 E | GAB | AAB | BcG | Acc | BFF | GFF | E3- | E2 E | EF z | %186
 BF z | CE z | BFF | EEG | GGB | GGG | BBB | ABB, | CB,B, | B,3- | B,2 z | z3 | z3 | z3 | z2 F | %201
 BGF | EE=D | B,E=D | GG z | EA z | FB z | Ge z | cF z | Bd z | BE z | Ac z | GB z | FA z | EB z | %215
 z3 | z2 =D | EFG | FB, z | z3 | z3 | z3 | z2 G | GGF | EE=D | BE=D | G2 z | E/G/B/F/G/B/ | eGE | %229
 EEE | E z2 | F/A/c/G/A/c/ | f=AF | FFF | F z2 | z B/A/4G/4=e | z C/B,/4A,/4A | z3 | z2 G | cAG | %240
 FF=E | cF=E | A z2 | G z2 | G z2 | F z2 | G z2 | z FC | z =AA | z FF | z BB | B z2 | z3 | z3 | %254
 z2 =E | F z A | G z c | =A z A | B z F | E z G | F z B | G z G | AEc- | c=B/c/=d | z =B/c/=d | %265
 z c/=d/e | z c/=d/e | z =d/e/f | z =d/e/f | z3 | z2 =B | cGc | _cFc | cGc | %274
 d/4c/4d/4c/4d/4c/4d/4c/4d/4c/4d/4c/4 | d/4c/4d/4c/4 e/4d/4 e/4d/4 e/4d/4 e/4d/4 | %276
 e/4d/4 e/4d/4 e/4d/4 e/4d/4 e/4d/4 e/4d/4 | e/4d/4 e/4d/4 e/4d/4 e/4d/4 e/4d/4 e/4d/4 | %278
 e/4d/4 e/4d/4 z2 | z z2 | z z2 | z/ c/cc/4=B/4c/4=B/4 | G2 A | ccB | AAG | FFG | A2 E | E3- | E3 | %289
 DCA | G2 G | AAA | GGG | ccc | eee | deE | FEE | E3- | EA, z | A,D z | B,E z | CA z | FB, z | %303
 E_G z | EA, z | DF z | CE z | B,D z | A,E z | z3 | z2 B | ABc | BE z | z dc | z dB | z Ac | z FB | %317
 z BE | A z2 | z3 | E/A/c/G/A/c/ | ecB | AAG | FFG | A2 E | E3- | E3 | DCA | G2 A | ccB | AAG | %331
 FFG | AEA | AB z | eB z | FA z | eBB | ABc | BB/A/B/G/ | ADC | B,B,B, | EFE | EDA | AAG | %344
 !fermata!E2 z |] %345
V:8
 A,,A, z2 z4 | G,,G, z2 z4 | z A,/G,/ A,F, =D,F,D,B,, | G,,G,/F,/ G,E, C,E,C,A,, | %4
 F,,F,E,E,, =D,,=D,C,C | B,B,,E,G, A,,A,/G,/ A,F, | G,,G,/F,/ G,E, F,,F,/E,/ F,B,, | %7
 E,,F,,/G,,/ A,,2- A,,G,,A,,B,, | E,,E, z2 z4 | D,,D, z2 z4 | C,C z2 z4 | A,,A, z2 z4 | %12
 D,DG,B, C,CF,A, | B,,B,E,G, A,,A,F,C, | =D,=D,,D,,D, E,E,,E,,E, | F,F,,F,,F, C,/B,,/C,/D,/ E,E,, | %16
 A,,2 z2 z4 | z A,,/B,,/ C,A,, G,,E,, z2 | z z4 E,/F,/ G,E, | A,A,, z2 z4 | z8 | z8 | E,E z2 z4 | %23
 D,D z2 z4 | C,C z2 z4 | z8 | z8 | z8 | z8 | z8 | z8 | z8 | E,,E, z2 z4 | G,,G, z2 z4 | %34
 z A,/G,/ A,F, =D,F,D,B,, | G,,G,/F,/ G,E, C,E,C,A,, | F,,F,E,E,, =D,,=D,C,C | %37
 B,B,,E,G, A,,A,/G,/ A,F, | G,,G,/F,/ G,E, F,,F,/E,/ F,B,, | E,,F,,/G,,/ A,,2- A,,G,,A,,B,, | %40
 E,,E, z2 z4 | z4 A,,A, z2 | z8 | z4 D,D z2 | z4 C,C z2 | z4 B,,B, z2 | z8 | F,,F, z2 z4 | %48
 B,,B, z2 z4 | A,,A, z2 z4 | G,,G, z2 z4 | A,,A, z2 z4 | G,,G, z2 z4 | F,,F, z2 z4 | z8 | z8 | %56
 F,,F, z2 z4 | E,,E, z2 z4 | =D,=D z2 B,,B, z2 | E,E z2 A,,A, z2 | =D,=D z2 G,,G, z2 | %61
 C, z z2 =D, z z2 | E, z z2 z4 | z8 | C,C z2 z4 | G,,G, z2 z4 | C,,C, z2 F,,F, z2 | %67
 B,,B, z2 E,E z2 | A,,A, z2 z4 | z8 | z8 | z8 | B,,B, z2 G,,G, z2 | E,,E, z2 A,,A, z2 | %74
 F,,F, z2 =D,,=D, z B,, | =D,F,A,F, D,B,,D,F, | B, z z2 z4 | z8 | A,,A, z2 z4 | E,E z2 z4 | %80
 A,,A, z2 z4 | z4 D,D z2 | z8 | z4 C,C z2 | z4 B,,B, z2 | z4 A,,A, z2 | z8 | z8 | A,,A, z2 z4 | %89
 G,,G, z2 z4 | z A,/G,/ A,F, =D,F,D,B,, | G,,G,/F,/ G,E, C,E,C,A,, | F,,F,E,E,, =D,,=D,C,C | %93
 B,B,,E,G, A,,A,/G,/ A,F, | G,,G,/F,/ G,E, F,,F,/E,/ F,B,, | E,,F,,/G,,/ A,,2- A,,G,,A,,B,, | %96
 E,,E, z2 z4 | D,,D, z2 z4 | C,C z2 z4 | A,,A, z2 z4 | D,DG,B, C,CF,A, | B,,B,E,G, A,,A,F,C, | %102
 =D,=D,,D,,D, E,E,,E,,E, | F,F,,F,,F, C,/B,,/C,/D,/ E,E,, | A,,2 z2 z4 | %105
[M:12/8] F,,3 z2 F, _F,3 z2 E, | =D,3 z2 _D, C,2 D, B,,2 C, | F,,3 z z8 | z4 z8 | z4 z8 | z4 z8 | %111
 C,3 z2 C, D,3 z2 =D, | E,3 z2 =E, F,2 D, B,,2 C, | F,,3 z z8 | z4 z8 | z4 z8 | z4 z8 | z4 z8 | %118
 z z4 G, C,2 G,, C,,2 z | z4 z8 | z4 z8 | z4 z8 | z4 z8 | z4 z8 | z4 z8 | z4 z8 | z4 z8 | %127
 B,,3 z2 B,, A,,3 z2 A,, | G,,3 z2 G,, C,3 z2 C, | F,,2 z2 z8 | z2 z4 C2 G, C,2 B, | %131
 =A,2 z4 B,2 F, B,,2 _A, | G,2 z4 A,2 E, A,,2 _G, | F,2 z z2 D, A,3 z2 F, | %134
 B,2 z z2 E, A,2 z z2 _G, | F,2 z z2 E, =D,2 z z2 B,, | E,2 z z2 F, G,2 z z2 =A, | %137
 B,2 z z2 A, G,2 z z2 E, | A,2 z z2 D G,2 z z2 C | F,2 z z2 F, =E,3 z2 _E, | %140
 =D,3 z2 _D, C,2 D, B,,2 C, | F,,3 z2 F, _F,3 z2 E, | =D,3 z2 _D, C,2 D, B,,2 C, | F,,3 z3 z2 z4 | %144
[M:3/8] z2 A,, | A,A,G, | A,A,E, | F,D,E, | A,,/B,,/C,/D,/E,/F,/ | G,F,G, | A,G,A, | F,A,D, | %152
 E,/F,/E,/D,/C,/B,,/ | A,,A,,G,, | A,,A,,E,, | F,,D,,E,, | A,,/G,,/A,,/B,,/C,/A,,/ | D,D,,D, | %158
 E,E,,E, | F,F,,F, | G,G,,G, | A,A,A, | A,G,/F,/G,/E,/ | A,A,,A,, | A,,G,,/F,,/E,,/D,,/ | %165
 C,,F,,G,, | A,,D,,D, | A,C,E, | A,,2 z | z3 | z3 | z3 | z3 | z3 | z2 E,, | A,,/C,/E,/B,,/C,/E,/ | %176
 A, z2 | z3 | z3 | z3 | z3 | z3 | z2 B,, | E,,/G,,/B,,/F,,/G,,/B,,/ | E,/=D,/E,/F,/G,/E,/ | %185
 A,A,,A, | B,B,,B, | CC,C | =D=D,D | EE, z | z3 | z3 | z3 | z3 | z2 B,, | %195
 E,,/G,,/B,,/F,,/G,,/B,,/ | E,2 z | z3 | z3 | z3 | z/ B,,/B,/A,/G,/F,/ | G,E,=D, | E,E,,F,, | %203
 G,,A,,B,, | E,, z G,, | A,, z F,, | B,, z G,, | C, z =B, | C z F, | B,, z =A, | B, z E, | %211
 A,, z F, | G,, z E, | F,, z =D, | E,, z2 | z3 | z2 B,, | E,E,E, | E,=D, z | z3 | z3 | z3 | %222
 z/ B,,/E,/=D,/E,/F,/ | G,E,=D, | E,E,,F,, | G,,A,,B,, | E,,/G,,/B,,/F,,/G,,/B,,/ | E, z2 | z3 | %229
 z C,E, | A,,A,G, | F, z2 | z3 | z D,F, | B,, z2 | z3 | z3 | z3 | z/ C,/C/B,/A,/G,/ | A,F,_F, | %240
 F,F,,G,, | A,,B,,C, | F,,A,,F,, | B,, z2 | C, z2 | D, z2 | C, z B,, | =A,, z2 | F,, z2 | B,, z2 | %250
 G,, z2 | C, z2 | z3 | z3 | z2 C, | F,,F,/=E,/F,- | F,E,/=D,/E,- | E,C,F, | B,,C,D, | %259
 E,,E,/=D,/E,- | E,D,/C,/D,- | D,B,,E, | A,,A,G, | F, z =D, | _C, z G,, | C, z C, | C,, z C, | %267
 =D, z D, | =D,, z =D, | E,A,F, | G,/A,/G,/F,/E,/=D,/ | C, z2 | z3 | z3 | z F,,F,, | z F,,F,, | %276
 z F,,F,, | z F,,F,, | z F,_C, | C, z =B,, | C, z =D, | E,/F,/G,G,, | C,/G,/C/D/C/B,/ | A,A,G, | %284
 A,A,E, | F,D,E, | A,,/B,,/C,/D,/E,/F,/ | G,F,G, | A,G,A, | F,A,D, | E,/F,/E,/D,/C,/B,,/ | A,, z2 | %292
 z3 | z3 | z3 | z3 | z2 E,, | A,,/C,/E,/B,,/C,/E,/ | A, z C, | D, z B,, | E, z C, | F,, z =E, | %302
 F, z B,, | E,, z =D, | E, z A,, | D, z B,, | C, z A,, | B,, z G,, | A,, z2 | z3 | z2 E, | A,A,A, | %312
 A,G,/F,/E,/D,/ | C, z2 | B,, z2 | A,, z2 | D, z2 | D, z2 | C,D,E, | A,,A,E, | C,A,, z | A,,A,G, | %322
 A,A,E, | F,D,E, | A,,/B,,/C,/D,/E,/F,/ | G,F,G, | A,G,A, | F,A,D, | E,/F,/E,/D,/C,/B,,/ | %329
 A,,A,,G,, | A,,A,,E,, | F,,D,,E,, | A,,/G,,/A,,/B,,/C,/A,,/ | D,D,,D, | E,E,,E, | F,F,,F, | %336
 G,G,,G, | A,A,A, | A,G,/F,/G,/E,/ | A,A,,A,, | A,,G,,/F,,/E,,/D,,/ | C,,F,,G,, | A,,D,,D, | %343
 A,C,E, | !fermata!A,,2 z |] %345

